X:66
T: Kan wawa
N: C1564
O: China, Liaoning, jinxian
S: III, 292]
R: Xiaodiao. Fun shenghuo]
M: 2/4
L: 1/16
K: F
c2c2dcdf | c8 | f2dcc2F2 | G8
z2F2F2GG | A3fd2c2 | FFDFGAF2 | G3AG4
F2F2DFDF | G3Ac2A2 | G2G2A2c2 | G2G4
GA | c6d2 | f2d2c2A2 | G3AGG2A | c6A2 | c8
f3dc4- | c4G3A | c3
dA2G2 | F3GE2D2 | C3DF2G2 | DFDCA,CDF | C8

